!!!COM: Palestrina, Giovanni Perluigi da
!!!OPR: Missa De Beata Marie Virginis (I)
!!!OMD: Gloria
!!!OTL: Tu solus Altissimus
**kern	**kern	**kern	**kern	**kern
*Ibass	*Itenor	*Itenor	*Icalto	*Icant
!Bassus	!Tenor 2	!Tenor 1	!Altus	!Cantus
*clefF4	*clefGv2	*clefGv2	*clefG2	*clefG2
*k[]	*k[]	*k[]	*k[]	*k[]
*G:mix	*G:mix	*G:mix	*G:mix	*G:mix
*M4/2	*M4/2	*M4/2	*M4/2	*M4/2
=121	=121	=121	=121	=121
0r	0r	0r	0r	1dd
.	.	.	.	1cc
=122	=122	=122	=122	=122
0r	0r	0r	1g	1dd
.	.	.	1f#	1a
=123	=123	=123	=123	=123
0r	0r	2r	1g	2.b
.	.	2g	.	.
.	.	.	.	4cc
.	.	1f#	1d	2dd
.	.	.	.	2a
=124	=124	=124	=124	=124
0r	0r	1g	1e	4cc
.	.	.	.	4b
.	.	.	.	4b
.	.	.	.	8a
.	.	.	.	8g
.	.	1d	1f	2a
.	.	.	.	2dd
=125	=125	=125	=125	=125
1r	0r	1e	2.g	2b
.	.	.	.	2cc
.	.	.	4g	.
1d	.	1f	2a	2dd
.	.	.	2b	[2ff
=126	=126	=126	=126	=126
1c	0r	1.g	1cc	4ff]
.	.	.	.	4ee
.	.	.	.	2.ee
1d	.	.	[1a	.
.	.	.	.	4dd
.	.	2f	.	2dd
=127	=127	=127	=127	=127
1A	0r	1e	2a]	2dd
.	.	.	2a	2cc#
1B	.	1d	2g	1dd
.	.	.	2f	.
=128	=128	=128	=128	=128
1c	1g	0r	1e	2cc
.	.	.	.	2b
2.d	1f#	.	2r	1a
.	.	.	2a	.
4d	.	.	.	.
=129	=129	=129	=129	=129
1G	1g	2r	1b	2g
.	.	2g	.	2.gg
2r	1d	2a	1a	.
.	.	.	.	4ff
2d	.	2f	.	2ff
=130	=130	=130	=130	=130
1c	1e	1g	2.cc	1ee
.	.	.	4b	.
2d	1f	4f	4a	2dd
.	.	4e	4g	.
2D	.	4d	2a	[2ff
.	.	4c	.	.
=131	=131	=131	=131	=131
1E	1g	2B	2g	4ff]
.	.	.	.	4ee
.	.	2B	2e	1ee
2.F	1f	2A	[1a	.
.	.	[2A	.	[2dd
4G	.	.	.	.
=132	=132	=132	=132	=132
1.A	0e	2A]	2a]	2dd]
.	.	1a	2e	4cc#
.	.	.	.	4b
.	.	.	2.a	2cc#
2A	.	2e	.	2cc#
.	.	.	4a	.
=133	=133	=133	=133	=133
0D	0d	1f#	1a	0dd
.	.	[1a	[1f	.
=134	=134	=134	=134	=134
0F	[0c	2a]	2f]	1cc
.	.	2g	2g	.
.	.	1f	2a	1ff
.	.	.	2b	.
=135	=135	=135	=135	=135
1C	1c]	2g	2.cc	1ee
.	.	1a	.	.
.	.	.	4b	.
1D	1f	.	2a	1dd
.	.	2a	2d	.
=136	=136	=136	=136	=136
1A	1e	2.a	2e	1cc#
.	.	.	1a	.
.	.	4g	.	.
1B-	1d	2f	.	1dd
.	.	4e	2g	.
.	.	4d	.	.
=137	=137	=137	=137	=137
0A	2c#	2e	0a	1r
.	1d	2f	.	.
.	.	1e	.	1ee
.	2c#	.	.	.
=138	=138	=138	=138	=138
2D	[0d	2d	1a	0ff#
1D	.	1A	.	.
.	.	.	1a	.
2D	.	2A	.	.
=139	=139	=139	=139	=139
0G	0d]	1B-	1g	0gg
.	.	1G	1b-	.
=140	=140	=140	=140	=140
[0D	[0d	[0A	[0a	[0ff#
=141	=141	=141	=141	=141
0D]	0d]	0A]	0a]	0ff#]
*-	*-	*-	*-	*-
!!!CDT: 1525/^1526/-1594/2/2
!!!OCY: Italia
!!!AGN: Mass (Paraphrase)
!!!AST: renaissance, vocal
!!!ASW: Gregorian Mass
!!!PWK: Masses, Book Mantuan I
!!!RNB: Cadence finals: D
!!!YOR: Le Opere Complete, v. 18, p. 83
!!!YOO: Rome, Italy: Fratelli Scalera
!!!END: 1992//
!!!EED: John Miller
!!!YEC: Copyright 2000, John Miller
!!!YEN: United States of America
!!!YEM: Rights to all derivative electronic formats reserved.
!!!YEM: Refer to licensing agreement for further details.
!!!YEM: This file must be accompanied by the licensing agreement.
!!!YEM: A copy of the licensing agreement may be found at http://www.music-cog.ohio-state.edu/HumdrumDatabases/Palestrina/license.txt
!!!EMD: converted to Humdrum by Bret Aarden
